**kern	**text	**kern	**text	**kern	**text	**kern	**text	**kern	**text
*staff5	*staff5	*staff4	*staff4	*staff3	*staff3	*staff2	*staff2	*staff1	*staff1
=1-	=1-	=1-	=1-	=1-	=1-	=1-	=1-	=1-	=1-
*clefF4	*	*clefGv2	*	*clefGv2	*	*clefG2	*	*clefG2	*
*k[]	*	*k[]	*	*k[]	*	*k[]	*	*k[]	*
*M4/4	*	*M4/4	*	*M4/4	*	*M4/4	*	*M4/4	*
1r	.	2g\	Nel	1r	.	1r	.	4r	.
.	.	.	.	.	.	.	.	4g/	Nel
.	.	4.f\	fo-	.	.	.	.	8a\L	fo-
.	.	.	.	.	.	.	.	8b\J	.
.	.	.	.	.	.	.	.	8cc\L	.
.	.	8f\	co	.	.	.	.	8dd\J	.
=2	=2	=2	=2	=2	=2	=2	=2	=2	=2
1r	.	4e\	d'un	1r	.	2g/	Nel	8ee\L	.
.	.	.	.	.	.	.	.	8ff\J	.
.	.	4e\	bel	.	.	.	.	8gg\L	.
.	.	.	.	.	.	.	.	8ee\J	.
.	.	2d\	lau-	.	.	4.a/	fo-	2ff#\	.
.	.	.	.	.	.	8a/	co	.	.
=3	=3	=3	=3	=3	=3	=3	=3	=3	=3
2G\	Nel	2d\	ro	4r	.	4b\	d'un	2gg\	co
.	.	.	.	4G/	Nel	4b\	bel	.	.
4.F\	fo-	2r	.	8A\L	fo-	2cc\	lau-	4cc\	d'un
.	.	.	.	8B\J	.	.	.	.	.
.	.	.	.	8c\L	.	.	.	4a/	bel
8F\	co	.	.	8d\J	.	.	.	.	.
=4	=4	=4	=4	=4	=4	=4	=4	=4	=4
4E\	d'un	2r	.	8e\L	.	4g/	ro	2ee\	lau-
.	.	.	.	8f\J	.	.	.	.	.
4E\	bel	.	.	8g\L	.	4g/	Nel	.	.
.	.	.	.	8e\J	.	.	.	.	.
2D\	lau-	4r	.	2f#\	.	4.a/	fo-	2a/	ro
.	.	[4d\	d'un-	.	.	.	.	.	.
.	.	.	.	.	.	8a/	co	.	.
=5	=5	=5	=5	=5	=5	=5	=5	=5	=5
2G\	ro	4d\]	.	4g\	co	4b\	d'un	2r	.
.	.	4B\	bel	2g\	d'un	4b\	bel	.	.
4r	.	2e\	lau-	.	.	2cc\	lau-	2gg\	Nel
4C/	Nel	.	.	4e\	bel	.	.	.	.
=6	=6	=6	=6	=6	=6	=6	=6	=6	=6
8D\L	fo-	1A/	ro	1a\	lau-	4f/	ro	4ff\	fo-
8E\J	.	.	.	.	.	.	.	.	.
8F\L	.	.	.	.	.	2cc\	d'un	4ff\	co
8G\J	.	.	.	.	.	.	.	.	.
8A\L	.	.	.	.	.	.	.	4ee\	d'un
8B\J	.	.	.	.	.	.	.	.	.
8c\L	.	.	.	.	.	4a/	bel	4ee\	bel
8A\J	.	.	.	.	.	.	.	.	.
=7	=7	=7	=7	=7	=7	=7	=7	=7	=7
2B\	.	4r	.	2d\	ro	2dd\	lau-	2dd\	lau-
.	.	2g\	d'un	.	.	.	.	.	.
2c\	co	.	.	4r	.	4g/	ro-	[2ee\	ro
.	.	4e\	bel	[4c\	d'un	4g/	Nel	.	.
=8	=8	=8	=8	=8	=8	=8	=8	=8	=8
1r	.	4.a\	lau-	4c\]	.	2cc\	fo-	2ee\]	.
.	.	.	.	4A/	bel	.	.	.	.
.	.	8g\	.	.	.	.	.	.	.
.	.	2f#\	.	2d\	lau-	2a/	co	4r	.
.	.	.	.	.	.	.	.	[4dd\	d'un
=9	=9	=9	=9	=9	=9	=9	=9	=9	=9
4r	.	4g\	ro	4G/	ro	2.b\	d'un	4dd\]	.
2G\	d'un	4g\	d'un	2d\	d'un	.	.	4g/	bel
.	.	4d\	bel	.	.	.	.	[2dd\	lau-
4D\	bel	[4a\	lau-	4f\	bel	4a/	bel	.	.
=10	=10	=10	=10	=10	=10	=10	=10	=10	=10
1A\	lau-	4a\]	.	1e\	lau-	1a/	lau-	2dd\]	.
.	.	8g\L	.	.	.	.	.	.	.
.	.	8f\J	.	.	.	.	.	.	.
.	.	2e\	.	.	.	.	.	2cc#\	.
=11	=11	=11	=11	=11	=11	=11	=11	=11	=11
1D\	ro	2.f#\	ro	2d\	ro	2a/	ro	2.dd\	ro,
.	.	.	.	2d\	co-	4r	.	.	.
.	.	4f#\	co-	.	.	4a/	co-	4dd\	co-
=12	=12	=12	=12	=12	=12	=12	=12	=12	=12
1r	.	2.g\	meu-	2.c\	meu-	2.cc\	meu-	2.ee\	meu-
.	.	4f#\	ni-	4d\	ni-	4a/	ni-	4dd\	ni-
=13	=13	=13	=13	=13	=13	=13	=13	=13	=13
1r	.	4g\	ca	4e\	ca	4g/	ca	4cc\	ca
.	.	4e\	Fe-	4g\	Fe-	4g/	Fe-	4b\	Fe-
.	.	2f#\	ni-	2d\	ni-	2a/	ni-	2dd\	ni-
=14	=14	=14	=14	=14	=14	=14	=14	=14	=14
2r	.	2.g\	ce	2G/	ce	2.b\	ce	2dd\	ce
2G\	co-	.	.	2d\	co-	.	.	4r	.
.	.	4g\	co-	.	.	4b\	co-	4dd\	co-
=15	=15	=15	=15	=15	=15	=15	=15	=15	=15
2.F\	meu-	2.a\	meu-	2.A/	meu-	2.cc\	meu-	2.ff\	meu-
4G\	ni-	4g\	ni-	4B\	ni-	4b\	ni-	4dd\	ni-
=16	=16	=16	=16	=16	=16	=16	=16	=16	=16
4A\	ca	4e\	ca	4c\	ca	4a/	ca	4cc\	ca
4c\	Fe-	4e\	Fe-	4c\	Fe-	4g/	Fe-	4cc\	Fe-
2G\	ni-	2d\	ni-	2B\	ni-	2g/	ni-	2dd\	ni-
=17	=17	=17	=17	=17	=17	=17	=17	=17	=17
1C/	ce	4c\	ce	2c\	ce	2g/	ce	2ee\	ce
.	.	[4c\	ar-	.	.	.	.	.	.
.	.	8c\L]	.	2r	.	4r	.	4.gg\	ar-
.	.	8d\J	.	.	.	.	.	.	.
.	.	8e\L	.	.	.	[4c/	ar-	.	.
.	.	8f\J	.	.	.	.	.	8ff\	.
=18	=18	=18	=18	=18	=18	=18	=18	=18	=18
1r	.	2g\	.	4r	.	8c/L]	.	8ee\L	.
.	.	.	.	.	.	8d/J	.	8dd\J	.
.	.	.	.	[4c\	ar-	8e/L	.	8cc\L	.
.	.	.	.	.	.	8f/J	.	8dd\J	.
.	.	4e\	si	8c\L]	.	2g/	.	8ee\L	.
.	.	.	.	8d\J	.	.	.	8ff\J	.
.	.	4c\	gran	8e\L	.	.	.	[4gg\	.
.	.	.	.	8f\J	.	.	.	.	.
=19	=19	=19	=19	=19	=19	=19	=19	=19	=19
1r	.	8c\L	tem-	2g\	.	4e/	si	4gg\]	.
.	.	8d\J	.	.	.	.	.	.	.
.	.	8e\L	.	.	.	4c/	gran	2ee\	si
.	.	8f\J	.	.	.	.	.	.	.
.	.	[2g\	.	4e\	si	4.cc\	tem-	.	.
.	.	.	.	4c\	gran	.	.	4ee\	gran
.	.	.	.	.	.	8b\	.	.	.
=20	=20	=20	=20	=20	=20	=20	=20	=20	=20
1r	.	4g\]	.	1d\	tem-	1a/	.	1dd\	tem-
.	.	8f#\L	.	.	.	.	.	.	.
.	.	8e\J	.	.	.	.	.	.	.
.	.	2f#\	.	.	.	.	.	.	.
=21	=21	=21	=21	=21	=21	=21	=21	=21	=21
2r	.	1g\	po	1G/	po	4b\	po	1dd\	po
.	.	.	.	.	.	[4g/	ar-	.	.
4r	.	.	.	.	.	8g\L]	.	.	.
.	.	.	.	.	.	8a\J	.	.	.
[4G\	ar-	.	.	.	.	8b\L	.	.	.
.	.	.	.	.	.	8cc\J	.	.	.
=22	=22	=22	=22	=22	=22	=22	=22	=22	=22
8G\L]	.	2r	.	4r	.	2dd\	.	1r	.
8A\J	.	.	.	.	.	.	.	.	.
8B\L	.	.	.	[4G/	ar-	.	.	.	.
8c\J	.	.	.	.	.	.	.	.	.
2d\	.	4r	.	8G\L]	.	[2b\	si	.	.
.	.	.	.	8A\J	.	.	.	.	.
.	.	[4G/	ar-	8B\L	.	.	.	.	.
.	.	.	.	8c\J	.	.	.	.	.
=23	=23	=23	=23	=23	=23	=23	=23	=23	=23
[1G\	si	8G/L]	.	2d\	.	2b\]	.	4r	.
.	.	8A/J	.	.	.	.	.	.	.
.	.	8B/L	.	.	.	.	.	[4g/	ar-
.	.	8c/J	.	.	.	.	.	.	.
.	.	2d\	.	4B\	si	2g/	gran	8g\L]	.
.	.	.	.	.	.	.	.	8a\J	.
.	.	.	.	4G/	gran	.	.	8b\L	.
.	.	.	.	.	.	.	.	8cc\J	.
=24	=24	=24	=24	=24	=24	=24	=24	=24	=24
2G\]	.	4B\	si	2d\	tem-	4.g/	tem-	2dd\	.
.	.	4G/	gran	.	.	.	.	.	.
.	.	.	.	.	.	8a/	.	.	.
2G\	gran	4.g\	tem-	2G/	po	2b-\	.	4dd\	si
.	.	.	.	.	.	.	.	[4dd\	gran
.	.	8f\	.	.	.	.	.	.	.
=25	=25	=25	=25	=25	=25	=25	=25	=25	=25
1A\	tem-	1e\	.	1r	.	1a/	po	4dd\]	.
.	.	.	.	.	.	.	.	8cc#\L	tem-
.	.	.	.	.	.	.	.	8b\J	.
.	.	.	.	.	.	.	.	2cc#\	.
=26	=26	=26	=26	=26	=26	=26	=26	=26	=26
1D\	po	1f#\	po	[1A/	e-	2r	.	2dd\	po
.	.	.	.	.	.	2d/	e	[2dd\	e
=27	=27	=27	=27	=27	=27	=27	=27	=27	=27
1D\	e	2r	.	2A/]	.	[1a/	fu	2dd\]	.
.	.	[2A/	e	[2d\	fu	.	.	[2ff\	fu
=28	=28	=28	=28	=28	=28	=28	=28	=28	=28
1A\	fu	2A/]	.	2d\]	.	2a/]	.	2ff\]	.
.	.	[2c\	fu	2c\	l'ar-	2e/	l'ar-	[2ee\	l'ar-
=29	=29	=29	=29	=29	=29	=29	=29	=29	=29
1E\	l'ar-	2c\]	.	2e\	dor	[1g/	dor	2ee\]	.
.	.	[2B\	l'ar-	2e\	fe-	.	.	[2gg\	dor
=30	=30	=30	=30	=30	=30	=30	=30	=30	=30
2G\	dor	2B\]	.	2.d\	li-	2g/]	.	2gg\]	.
2D\	fe-	[2d\	dor	.	.	2a/	fe-	2ff\	fe-
.	.	.	.	4A/	ce.	.	.	.	.
=31	=31	=31	=31	=31	=31	=31	=31	=31	=31
[1E\	li-	2d\]	.	1r	.	2g#/	li-	[1ee\	li-
.	.	2c\	fe-	.	.	[2a/	.	.	.
=32	=32	=32	=32	=32	=32	=32	=32	=32	=32
1E\]	.	1B\	li-	1r	.	2a/]	.	1ee\]	.
.	.	.	.	.	.	2g#/	.	.	.
=33	=33	=33	=33	=33	=33	=33	=33	=33	=33
1A\	ce.	2A/	ce.	2r	.	1a/	ce.	1cc#\	ce.
.	.	2e\	Hor	2A/	Hor	.	.	.	.
=34	=34	=34	=34	=34	=34	=34	=34	=34	=34
2r	.	2f\	ch'al-	4d\	ch'al-	1a/	Hor	2r	.
.	.	.	.	[4d\	trihan-	.	.	.	.
2A\	Hor	4e\	trihan-	8d\L]	.	.	.	2ee\	Hor
.	.	.	.	8c#\J	no	.	.	.	.
.	.	[4a\	no	4c#\	ris-	.	.	.	.
=35	=35	=35	=35	=35	=35	=35	=35	=35	=35
4d\	ch'al-	4a\]	.	2d\	tau-	4f/	ch'al	2ff\	ch'al-
[4d\	trihan-	4a\	ris-	.	.	4d/	trihan-	.	.
8d\L]	.	2a\	tau-	4A/	ro,	4e/	no	2ee\	trihan-
8c#\J	no	.	.	.	.	.	.	.	.
4c#\	ris-	.	.	4A/	hor	4a/	ris-	.	.
=36	=36	=36	=36	=36	=36	=36	=36	=36	=36
2d\	tau-	2f#\	ro	4d\	ch'al	2a/	tau-	2dd\	no
.	.	.	.	[4d\	trihan-	.	.	.	.
2A\	ro	2a\	han-	8d\L]	.	4a/	ro	2ee\	ris-
.	.	.	.	8c#\J	no	.	.	.	.
.	.	.	.	4c#\	ris-	4e/	han	.	.
=37	=37	=37	=37	=37	=37	=37	=37	=37	=37
1r	.	4a\	no	1d\	tau-	4f#/	no	1dd\	tau-
.	.	4g\	ris-	.	.	4g/	ris-	.	.
.	.	2f#\	tau-	.	.	2a/	tau-	.	.
=38	=38	=38	=38	=38	=38	=38	=38	=38	=38
1r	.	2.g\	ro	4G/	ro	4b\	ro	4dd\	ro
.	.	.	.	4G/	da	4b\	da	4dd\	da
.	.	.	.	4c\	la	4cc\	la	4ee\	la
.	.	4G/	da	4d\	me-	8b/L	.	4dd\	me-
.	.	.	.	.	.	8a/J	.	.	.
=39	=39	=39	=39	=39	=39	=39	=39	=39	=39
1r	.	4c\	la	4e\	des-	2.g/	.	4cc\	des-
.	.	4d\	me-	4B\	ma	.	.	4b\	ma
.	.	4e\	des-	4c\	fiam-	.	.	4ee\	fiam-
.	.	4B\	ma	4d\	.	4g/	me-	4dd\	.
=40	=40	=40	=40	=40	=40	=40	=40	=40	=40
1r	.	4c\	fiam-	4e\	.	4a/	des-	4cc\	.
.	.	4d\	.	4f\	.	4b\	ma	8b/L	.
.	.	.	.	.	.	.	.	8a/J	.
.	.	4e\	.	[2g\	.	4cc\	fiam-	4g/	.
.	.	4f\	.	.	.	[4dd\	.	4a/	.
=41	=41	=41	=41	=41	=41	=41	=41	=41	=41
1r	.	1g\	.	2g\]	.	4dd\]	.	4b\	.
.	.	.	.	.	.	2cc\	.	4cc\	.
.	.	.	.	2G/	ma	.	.	2dd\	.
.	.	.	.	.	.	4b\	.	.	.
=42	=42	=42	=42	=42	=42	=42	=42	=42	=42
2r	.	2c\	ma	2r	.	2.cc\	ma	1ee\	ma
2c\	in	2g\	in	2e\	in	.	.	.	.
.	.	.	.	.	.	4cc\	in	.	.
=43	=43	=43	=43	=43	=43	=43	=43	=43	=43
2.A\	me	2.a\	me	2.e\	me	2.cc\	me	1r	.
4E\	a	4g\	a	4e\	a	4b\	a	.	.
=44	=44	=44	=44	=44	=44	=44	=44	=44	=44
4F\	dram-	4f\	dram-	4c\	dram-	4a/	dram-	1r	.
4G\	maa	4d\	maa	4B\	maa	4g/	maa	.	.
2D\	dram-	2d\	dram-	2A/	dram-	2f#/	dram-	.	.
=45	=45	=45	=45	=45	=45	=45	=45	=45	=45
1G\	ma	2d\	ma	2.B\	ma	2g/	ma	2r	.
.	.	2g\	in	.	.	4r	.	2dd\	in
.	.	.	.	4d\	in	4b\	in	.	.
=46	=46	=46	=46	=46	=46	=46	=46	=46	=46
1r	.	2.e\	me	2.g\	me	2.b\	me	2.ee\	me
.	.	4B\	a	4g\	a	4b\	a	4dd\	a
=47	=47	=47	=47	=47	=47	=47	=47	=47	=47
1r	.	4c\	dram-	4e\	dram-	4g/	dram-	4cc\	dram-
.	.	4d\	maa	4d\	maa	4f/	maa	4a/	maa-
.	.	2A/	dram-	2c#\	dram-	2e/	dram-	2a/	dram-
=48	=48	=48	=48	=48	=48	=48	=48	=48	=48
4r	.	2d\	ma	2d\	ma	2d/	ma	4a/	ma
2d\	man-	.	.	.	.	.	.	2ff\	man-
.	.	2a\	man-	2r	.	2r	.	.	.
[4c\	ca	.	.	.	.	.	.	[4ee\	ca
=49	=49	=49	=49	=49	=49	=49	=49	=49	=49
4c\]	.	2.g\	ca	2r	.	1r	.	4ee\]	.
4B\	l'ar-	.	.	.	.	.	.	4dd\	l'ar-
4.A\	do-	.	.	4r	.	.	.	2cc\	do-
.	.	4f\	l'ar-	[4a\	man-	.	.	.	.
8B\	.	.	.	.	.	.	.	.	.
=50	=50	=50	=50	=50	=50	=50	=50	=50	=50
[1c\	.	2.e\	do-	4a\]	.	1r	.	1cc\	re
.	.	.	.	2g\	ca	.	.	.	.
.	.	4f\	.	4f\	l'ar-	.	.	.	.
=51	=51	=51	=51	=51	=51	=51	=51	=51	=51
2c\]	.	2g\	re	2e\	do-	4r	.	1r	.
.	.	.	.	.	.	4cc\	ein	.	.
2F\	re	4a\	e	4f\	re	4.cc\	tut-	.	.
.	.	4a\	in	4c\	ein	.	.	.	.
.	.	.	.	.	.	8b\	to	.	.
=52	=52	=52	=52	=52	=52	=52	=52	=52	=52
2r	.	4.f\	tut-	2d\	tu-	4a/	spen-	2r	.
.	.	.	.	.	.	4a/	to	.	.
.	.	8f\	to	.	.	.	.	.	.
2c\	ein	4e\	spen-	2e\	to	2g/	si-	4r	.
.	.	4e\	to	.	.	.	.	4gg\	ein
=53	=53	=53	=53	=53	=53	=53	=53	=53	=53
2d\	tut-	2d\	si-	2B\	spen-	2.g/	a	4.gg\	tut-
.	.	.	.	.	.	.	.	8ff\	to
2e\	to	4c\	a	2c\	to	.	.	4ee\	spen-
.	.	4c\	ein	.	.	4g/	ein	4ee\	to
=54	=54	=54	=54	=54	=54	=54	=54	=54	=54
2B\	spen-	2d\	tut-	2G/	si-	4.g/	tut-	2dd\	si-
.	.	.	.	.	.	8f/	to	.	.
2c\	to	2e\	to	4c\	a	4e/	spen-	4cc\	a
.	.	.	.	4c\	ein	4e/	to	4gg\	ein
=55	=55	=55	=55	=55	=55	=55	=55	=55	=55
2G\	si-	2B\	spen-	2d\	tut-	2d/	si-	4.gg\	tut-
.	.	.	.	.	.	.	.	8ff\	to
2C/	a	2c\	to	2e\	to	4c/	a	4ee\	spen-
.	.	.	.	.	.	4g/	ein	4ee\	to
=56	=56	=56	=56	=56	=56	=56	=56	=56	=56
1r	.	2G/	si-	2B\	spen-	4.g/	tut-	2dd\	si-
.	.	.	.	.	.	8f/	to	.	.
.	.	2c\	a	2c\	to	4e/	spen-	2cc\	a
.	.	.	.	.	.	4e/	to	.	.
=57	=57	=57	=57	=57	=57	=57	=57	=57	=57
1r	.	1r	.	2G/	si-	2d/	si-	1r	.
.	.	.	.	2c\	a	2c/	a	.	.
=58	=58	=58	=58	=58	=58	=58	=58	=58	=58
1r	.	2r	.	2r	.	2r	.	2r	.
.	.	[2c\	per-	[2g\	per-	[2cc\	per-	[2ee\	per-
=59	=59	=59	=59	=59	=59	=59	=59	=59	=59
1r	.	2c\]	.	2g\]	.	2cc\]	.	2ee\]	.
.	.	2G/	ch&eacute;A-	2g\	ch&eacute;A-	2b\	ch&eacute;A-	2dd\	ch&eacute;A-
=60	=60	=60	=60	=60	=60	=60	=60	=60	=60
2r	.	2d\	mor	2f#\	mor	2a/	mor	2dd\	mor
[2G\	per-	[2d\	per-	4r	.	[2b\	per-	[2gg\	per-
.	.	.	.	[4g\	per-	.	.	.	.
=61	=61	=61	=61	=61	=61	=61	=61	=61	=61
2G\]	.	2d\]	.	4g\]	.	2b\]	.	2gg\]	.
.	.	.	.	4d\	ch&eacute;A-	.	.	.	.
2D\	ch&eacute;A-	2d\	ch&eacute;A-	2a\	mor	2a/	ch&eacute;A	2ff\	ch&eacute;A
=62	=62	=62	=62	=62	=62	=62	=62	=62	=62
1A\	mor	1c#\	mor	2r	.	4a/	mor	2ee\	mor
.	.	.	.	.	.	2a/	non	.	.
.	.	.	.	[2e\	per-	.	.	4r	.
.	.	.	.	.	.	4e/	pa-	[4ee\	non
=63	=63	=63	=63	=63	=63	=63	=63	=63	=63
1r	.	1r	.	2e\]	.	2g#/	ti-	4ee\]	.
.	.	.	.	.	.	.	.	4b\	pa-
.	.	.	.	2A/	ch&eacute;A-	2a/	sce	4cc\	ti-
.	.	.	.	.	.	.	.	4cc\	sce
=64	=64	=64	=64	=64	=64	=64	=64	=64	=64
1r	.	2r	.	1e\	mor	4g#/	com-	4b\	com-
.	.	.	.	.	.	4a/	pa-	4a/	pa-
.	.	[2e\	per-	.	.	2b\	gni-	2g#/	gni-
=65	=65	=65	=65	=65	=65	=65	=65	=65	=65
[1A\	per-	4e\]	.	2r	.	1cc#\	a	4a/	a
.	.	4A/	ch&eacute;A-	.	.	.	.	2ee\	per-
.	.	2e\	mor	4r	.	.	.	.	.
.	.	.	.	[4a\	non	.	.	4a/	ch&eacute;A-
=66	=66	=66	=66	=66	=66	=66	=66	=66	=66
2A\]	.	4c#\	non	4a\]	.	1r	.	2ee\	mor
.	.	4c#\	pa-	4e\	pa-	.	.	.	.
2D\	ch&eacute;A-	4d\	ti-	4f\	ti-	.	.	2r	.
.	.	4d\	sce	4f\	sce	.	.	.	.
=67	=67	=67	=67	=67	=67	=67	=67	=67	=67
1A\	mor	4c#\	com-	4e\	com-	2r	.	1r	.
.	.	4d\	pa-	4d\	pa-	.	.	.	.
.	.	2e\	gni-	2c#\	gni-	4r	.	.	.
.	.	.	.	.	.	[4a/	per-	.	.
=68	=68	=68	=68	=68	=68	=68	=68	=68	=68
2r	.	2f#\	a	2d\	a,	4a/]	.	2r	.
.	.	.	.	.	.	4d/	ch&eacute;A-	.	.
[2A\	non	4r	.	[2c#\	per-	2a/	mor	[2ee\	per-
.	.	[4a\	non	.	.	.	.	.	.
=69	=69	=69	=69	=69	=69	=69	=69	=69	=69
4A\]	.	4a\]	.	4c#\]	.	2r	.	2ee\]	.
4E\	pa-	4g#\	pa-	4B\	ch&eacute;A-	.	.	.	.
4F\	ti-	4a\	ti-	2A/	mor	[2c/	per-	2a/	ch&eacute;A-
4F\	sce	4a\	sce	.	.	.	.	.	.
=70	=70	=70	=70	=70	=70	=70	=70	=70	=70
4E\	com-	4gn\	com-	4r	.	4c/]	.	1ee\	mor
4D\	pa-	4f\	pa-	2a\	non	4A/	ch&eacute;A-	.	.
2C#/	gni-	2e\	gni-	.	.	[2a/	mor	.	.
.	.	.	.	4e\	pa-	.	.	.	.
=71	=71	=71	=71	=71	=71	=71	=71	=71	=71
1D\	a	2d\	a	4f#\	ti-	2a/]	.	2r	.
.	.	.	.	4f#\	sce	.	.	.	.
.	.	[2d\	per-	4a\	com-	4f#/	non	4r	.
.	.	.	.	4g\	pa-	4g/	pa-	[4dd\	non
=72	=72	=72	=72	=72	=72	=72	=72	=72	=72
1r	.	2d\]	.	2f#\	gni-	2a/	ti-	4dd\]	.
.	.	.	.	.	.	.	.	4a/	pa-
.	.	2G/	ch&eacute;A-	2g\	a	2g/	sce	4b-\	ti-
.	.	.	.	.	.	.	.	4b-\	sce
=73	=73	=73	=73	=73	=73	=73	=73	=73	=73
1r	.	1d\	mor,	2r	.	4f#/	com-	4a/	com-
.	.	.	.	.	.	4g/	pa-	4g/	pa-
.	.	.	.	4r	.	2a/	gni-	2f#/	gni-
.	.	.	.	[4d\	per-	.	.	.	.
=74	=74	=74	=74	=74	=74	=74	=74	=74	=74
[1G\	per-	4r	.	4d\]	.	1b\	a	2g/	a
.	.	2d\	per-	4G/	ch&eacute;A-	.	.	.	.
.	.	.	.	2d\	mor	.	.	4r	.
.	.	4G/	ch&eacute;A-	.	.	.	.	[4gg\	non
=75	=75	=75	=75	=75	=75	=75	=75	=75	=75
2G\]	.	2d\	mor	4B\	non	1r	.	4gg\]	.
.	.	.	.	4B\	pa-	.	.	4dd\	pa-
2C/	ch&eacute;A-	[2g\	per-	4c\	ti-	.	.	4ee\	ti-
.	.	.	.	4c\	sce	.	.	4ee\	sce
=76	=76	=76	=76	=76	=76	=76	=76	=76	=76
1G\	mor	2g\]	.	4B\	com-	4r	.	4dd\	com-
.	.	.	.	4c\	pa-	2g/	per-	4cc\	pa-
.	.	2G/	ch&eacute;A-	2d\	gni-	.	.	2b\	gni-
.	.	.	.	.	.	4d/	ch&eacute;A-	.	.
=77	=77	=77	=77	=77	=77	=77	=77	=77	=77
4r	.	1c\	mor	2c\	a	2e/	mor	2cc\	a
2A\	non	.	.	.	.	.	.	.	.
.	.	.	.	[2e\	per-	4cc\	non	4r	.
4E\	pa-	.	.	.	.	4cc\	pa-	[4gg\	non
=78	=78	=78	=78	=78	=78	=78	=78	=78	=78
4G\	ti-	1r	.	4e\]	.	4b\	ti-	4gg\]	.
4F\	sce	.	.	4A/	ch&eacute;A-	4a/	sce	4dd\	pa-
4E\	com-	.	.	2e\	mor	4b\	com-	4gg\	ti-
4E\	pa-	.	.	.	.	4g/	pa-	4gg\	sce
=79	=79	=79	=79	=79	=79	=79	=79	=79	=79
[1D\	gni-	2.d\	non	4r	.	[1a/	gni-	2.ff\	com-
.	.	.	.	2f\	non	.	.	.	.
.	.	4A/	pa-	4a\	pa-	.	.	4ee\	pa-
=80	=80	=80	=80	=80	=80	=80	=80	=80	=80
1D\_	.	4d\	ti-	4f\	ti-	2a/]	.	[1dd\	gni-
.	.	4c\	sce	4e\	sce	.	.	.	.
.	.	4B\	com-	[2d\	com-	[2g/	.	.	.
.	.	4B\	pa-	.	.	.	.	.	.
=81	=81	=81	=81	=81	=81	=81	=81	=81	=81
1D\]	.	1A/	gni-	4d\]	.	2g/]	.	1dd\]	.
.	.	.	.	4d\	pa-	.	.	.	.
.	.	.	.	2d\	gni-	2f#/	.	.	.
=82	=82	=82	=82	=82	=82	=82	=82	=82	=82
1G\	a.	1G/	a.	1d\	a.	1g/	a.	1b\	a.
==	==	==	==	==	==	==	==	==	==
*-	*-	*-	*-	*-	*-	*-	*-	*-	*-
